app/public/deploy.svg

<svg fill="none" height="39" viewBox="0 0 185 39" width="185" xmlns="http://www.w3.org/2000/svg" xmlns:xlink="http://www.w3.org/1999/xlink"><linearGradient id="a" gradientUnits="userSpaceOnUse" x1="11.0007" x2="5.02344" y1="25.9538" y2="16.158"><stop offset="0" stop-color="#eb6f07"/><stop offset="1" stop-color="#fab743"/></linearGradient><linearGradient id="b" gradientUnits="userSpaceOnUse" x1="12.9061" x2="9.80444" y1="24.7553" y2="21.5047"><stop offset="0" stop-color="#d96504"/><stop offset="1" stop-color="#d96504" stop-opacity="0"/></linearGradient><linearGradient id="c" gradientUnits="userSpaceOnUse" x1="11.863" x2="13.4922" y1="12.5358" y2="15.2028"><stop offset="0" stop-color="#eb6f07"/><stop offset="1" stop-color="#eb720a" stop-opacity="0"/></linearGradient><linearGradient id="d" gradientUnits="userSpaceOnUse" x1="19.9995" x2="14.6656" y1="26.1538" y2="14.828"><stop offset="0" stop-color="#ee6f05"/><stop offset="1" stop-color="#fab743"/></linearGradient><linearGradient id="e" gradientUnits="userSpaceOnUse" x1="14.3664" x2="23.1526" y1="26.1576" y2="23.8852"><stop offset="0" stop-color="#d96504" stop-opacity=".8"/><stop offset=".498" stop-color="#d96504" stop-opacity=".2"/><stop offset="1" stop-color="#d96504" stop-opacity="0"/></linearGradient><linearGradient id="f" gradientUnits="userSpaceOnUse" x1="15.9856" x2="10.5407" y1="26.1538" y2="14.9658"><stop offset="0" stop-color="#ffa95f"/><stop offset="1" stop-color="#ffebc8"/></linearGradient><linearGradient id="g"><stop offset="0" stop-color="#fff" stop-opacity=".5"/><stop offset="1" stop-color="#fff" stop-opacity=".1"/></linearGradient><linearGradient id="h" gradientUnits="userSpaceOnUse" x1="15.9947" x2="20.671" xlink:href="#g" y1="12.1557" y2="12.9048"/><linearGradient id="i" gradientUnits="userSpaceOnUse" x1="11.5501" x2="17.3308" xlink:href="#g" y1="26.6671" y2="25.7993"/><clipPath id="j"><path d="m8 12h16v14.1538h-16z"/></clipPath><rect fill="#404242" height="39" rx="5" width="185"/><path d="m31.1562 25v-11.375h3.3594c1.0052 0 1.8959.224 2.6719.6719.7813.4479 1.3854 1.0833 1.8125 1.9062s.6406 1.7657.6406 2.8281v.5704c0 1.0781-.2161 2.026-.6484 2.8437-.4271.8177-1.0391 1.4479-1.836 1.8906-.7916.4427-1.7005.6641-2.7265.6641zm1.9766-9.7812v8.2031h1.2891c1.0364 0 1.8307-.3229 2.3828-.9688.5573-.651.8411-1.5833.8515-2.7969v-.6328c0-1.2343-.2682-2.177-.8046-2.8281-.5365-.651-1.3151-.9765-2.336-.9765zm12.0156 9.9374c-1.2031 0-2.1796-.3776-2.9296-1.1328-.7448-.7604-1.1172-1.7708-1.1172-3.0312v-.2344c0-.8437.1614-1.5963.4843-2.2578.3282-.6667.7865-1.1849 1.375-1.5547.5886-.3698 1.2448-.5547 1.9688-.5547 1.151 0 2.0391.3672 2.6641 1.1016.6302.7344.9453 1.7734.9453 3.1172v.7656h-5.5235c.0573.6979.2891 1.25.6953 1.6562.4115.4063.9271.6094 1.5469.6094.8698 0 1.5781-.3515 2.125-1.0547l1.0234.9766c-.3385.5052-.7916.8984-1.3593 1.1797-.5625.276-1.1953.414-1.8985.414zm-.2265-7.2421c-.5209 0-.9427.1823-1.2657.5468-.3177.3646-.5208.8724-.6093 1.5235h3.6172v-.1406c-.0417-.6355-.211-1.1146-.5079-1.4376-.2968-.3281-.7083-.4921-1.2343-.4921zm12.5 2.9453c0 1.3073-.2969 2.3515-.8907 3.1328-.5937.776-1.3906 1.164-2.3906 1.164-.9271 0-1.6692-.3046-2.2265-.914v4.0078h-1.8985v-11.7031h1.75l.0782.8593c.5572-.677 1.3151-1.0156 2.2734-1.0156 1.0312 0 1.8385.3854 2.4219 1.1563.5885.7656.8828 1.8307.8828 3.1953zm-1.8907-.1641c0-.8437-.1692-1.513-.5078-2.0078-.3333-.4948-.8125-.7422-1.4375-.7422-.776 0-1.3333.3203-1.6718.9609v3.75c.3437.6563.9062.9844 1.6875.9844.6041 0 1.0755-.2422 1.414-.7265.3438-.4896.5156-1.2292.5156-2.2188zm5.5235 4.3047h-1.8985v-12h1.8985zm1.7187-4.3047c0-.8281.1641-1.5729.4922-2.2344.3282-.6666.7891-1.177 1.3828-1.5312.5938-.3594 1.2761-.5391 2.0469-.5391 1.1406 0 2.0651.3672 2.7735 1.1016.7135.7344 1.0989 1.7083 1.1562 2.9219l.0078.4453c0 .8333-.1614 1.5781-.4844 2.2344-.3177.6562-.776 1.164-1.375 1.5234-.5937.3594-1.2812.539-2.0625.539-1.1927 0-2.1484-.3958-2.8671-1.1874-.7136-.7969-1.0704-1.8568-1.0704-3.1797zm1.8985.1641c0 .8698.1797 1.5521.539 2.0468.3594.4896.8594.7344 1.5.7344.6407 0 1.1381-.25 1.4922-.75.3594-.5.5391-1.2317.5391-2.1953 0-.8542-.1849-1.5312-.5547-2.0312-.3646-.5-.862-.75-1.4922-.75-.6198 0-1.112.2474-1.4765.7421-.3646.4896-.5469 1.224-.5469 2.2032zm10.3984 1.4218 1.7188-5.7343h2.0234l-3.3594 9.7343c-.5156 1.4219-1.3906 2.1329-2.625 2.1329-.276 0-.5807-.0469-.914-.1407v-1.4687l.3593.0234c.4792 0 .8386-.0885 1.0782-.2656.2448-.1719.4375-.4635.5781-.875l.2734-.7266-2.9687-8.414h2.0468zm16.4297.7266 1.625-6.4609h1.4453l-2.4609 8.4531h-1.1719l-2.0547-6.4062-2 6.4062h-1.1719l-2.4531-8.4531h1.4375l1.6641 6.3281 1.9687-6.3281h1.1641zm6.1172 1.9922h-1.4453v-8.4531h1.4453zm-1.5625-10.6953c0-.2344.0703-.4323.2109-.5938.1459-.1614.3594-.2421.6406-.2421.2813 0 .4948.0807.6407.2421.1458.1615.2187.3594.2187.5938s-.0729.4297-.2187.5859c-.1459.1563-.3594.2344-.6407.2344-.2812 0-.4947-.0781-.6406-.2344-.1406-.1562-.2109-.3515-.2109-.5859zm5.8433.1953v2.0469h1.579v1.1172h-1.579v5.2421c0 .3386.071.5938.211.7657.141.1666.381.25.719.25.167 0 .396-.0313.688-.0938v1.1719c-.381.1042-.75.1562-1.11.1562-.646 0-1.133-.1953-1.461-.5859s-.492-.9453-.492-1.6641v-5.2421h-1.5389v-1.1172h1.5389v-2.0469zm4.719 3.0703c.641-.7864 1.474-1.1797 2.5-1.1797 1.787 0 2.688 1.0078 2.703 3.0235v5.5859h-1.445v-5.5938c-.005-.6093-.146-1.0598-.422-1.3515-.271-.2917-.695-.4375-1.273-.4375-.469 0-.881.125-1.235.375s-.63.5781-.828.9844v6.0234h-1.445v-12h1.445zm14.016 3.8438.219 1.5.32-1.3516 2.25-7.9375h1.266l2.195 7.9375.312 1.375.243-1.5313 1.765-7.7812h1.508l-2.758 11.375h-1.367l-2.344-8.2891-.18-.8671-.179.8671-2.43 8.2891h-1.367l-2.75-11.375h1.5zm10.89-.7188c0-.8281.162-1.5729.485-2.2344.328-.6614.781-1.1718 1.359-1.5312.584-.3594 1.248-.5391 1.992-.5391 1.151 0 2.081.3985 2.789 1.1953.714.7969 1.071 1.8568 1.071 3.1797v.1016c0 .8229-.159 1.5625-.477 2.2187-.312.6511-.763 1.1589-1.351 1.5235-.584.3646-1.256.5468-2.016.5468-1.146 0-2.076-.3984-2.789-1.1953-.708-.7968-1.063-1.8515-1.063-3.164zm1.454.1719c0 .9375.216 1.6901.648 2.2578.437.5677 1.021.8516 1.75.8516.734 0 1.318-.2865 1.75-.8594.432-.5781.648-1.3854.648-2.4219 0-.9271-.221-1.6771-.664-2.25-.437-.5781-1.02-.8672-1.75-.8672-.713 0-1.289.2839-1.726.8516-.438.5677-.656 1.3802-.656 2.4375zm12.14-3.0234c-.219-.0365-.456-.0547-.711-.0547-.948 0-1.591.4036-1.929 1.2109v6h-1.446v-8.4531h1.407l.023.9765c.474-.7552 1.146-1.1328 2.016-1.1328.281 0 .494.0365.64.1094zm3.695 3.2421-.906.9453v2.9688h-1.445v-12h1.445v7.2578l.774-.9297 2.632-2.7812h1.758l-3.289 3.5312 3.672 4.9219h-1.695zm9.102 4.0703c-1.146 0-2.078-.375-2.797-1.125-.719-.7552-1.078-1.763-1.078-3.0234v-.2656c0-.8386.159-1.586.477-2.2422.323-.6615.77-1.1771 1.343-1.5469.579-.375 1.203-.5625 1.875-.5625 1.099 0 1.954.362 2.563 1.086.609.7239.914 1.7604.914 3.1093v.6016h-5.727c.021.8333.263 1.5078.727 2.0234.469.5105 1.062.7657 1.781.7657.511 0 .943-.1042 1.297-.3125.354-.2084.664-.4844.93-.8282l.883.6875c-.709 1.0886-1.771 1.6328-3.188 1.6328zm-.18-7.5781c-.583 0-1.073.2136-1.468.6407-.396.4218-.641 1.0156-.735 1.7812h4.235v-.1094c-.042-.7344-.24-1.3021-.594-1.7031-.354-.4063-.833-.6094-1.438-.6094zm9.243.2657c-.219-.0365-.456-.0547-.711-.0547-.948 0-1.592.4036-1.93 1.2109v6h-1.445v-8.4531h1.406l.023.9765c.474-.7552 1.146-1.1328 2.016-1.1328.281 0 .495.0365.641.1094zm6.257 4.914c0-.3906-.148-.6927-.445-.9062-.292-.2188-.805-.4063-1.539-.5625-.729-.1563-1.31-.3438-1.742-.5625-.427-.2188-.745-.4792-.953-.7813-.203-.3021-.305-.6614-.305-1.0781 0-.6927.292-1.2787.875-1.7578.589-.4792 1.339-.7188 2.25-.7188.958 0 1.734.2474 2.328.7422.599.4948.899 1.1276.899 1.8984h-1.454c0-.3958-.169-.7369-.507-1.0234-.334-.2864-.756-.4297-1.266-.4297-.526 0-.937.1146-1.234.3438-.297.2291-.446.5286-.446.8984 0 .349.138.612.414.7891s.774.3463 1.493.5078c.724.1614 1.309.3542 1.757.5781.448.224.779.4948.993.8125.218.3125.328.6953.328 1.1484 0 .7553-.302 1.362-.907 1.8204-.604.4531-1.388.6796-2.351.6796-.677 0-1.276-.1197-1.797-.3593s-.93-.5729-1.227-1c-.291-.4323-.437-.8985-.437-1.3985h1.445c.026.4844.219.8698.578 1.1563.365.2812.844.4219 1.438.4219.547 0 .984-.1094 1.312-.3282.334-.2239.5-.5208.5-.8906z" fill="#fff"/><g clip-path="url(#j)"><path d="m12.1149 12.2038 1.8846 3.3365-1.7308 3.0573c-.0828.146-.1263.3103-.1263.4774s.0435.3315.1263.4775l1.7308 3.0648-1.8846 3.3365c-.3546-.1725-.6491-.4444-.8462-.7813l-2.99998-5.1143c-.17479-.2986-.26677-.6369-.26677-.9813s.09198-.6827.26677-.9813l2.99998-5.1143c.1977-.3354.4921-.606.8462-.7775z" fill="url(#a)"/><path d="m12.2693 18.6013c-.0822.1456-.1253.3092-.1253.4756s.0431.33.1253.4756l1.7308 3.0648-1.8846 3.3365c-.3547-.1725-.6491-.4444-.8462-.7813l-3-5.1143c-.23846-.4038 1.09615-.8869 4-1.4531z" fill="url(#b)" opacity=".7"/><path d="m12.3077 12.5397 1.6923 3.0006-.2807.4794-1.4923-2.4798c-.4308-.6907-1.0885-.3321-1.9116 1.0644l.1231-.2076.8308-1.4154c.1956-.3343.4872-.6048.8384-.7775l.1962.3359z" fill="url(#c)" opacity=".5"/><path d="m20.7308 12.9813 3 5.1143c.3577.6039.3577 1.3588 0 1.9627l-3 5.1142c-.1755.2982-.4277.5458-.7315.7181-.3038.1722-.6484.263-.9993.2632h-3l3.7308-6.6013c.0821-.1455.1252-.3092.1252-.4756s-.0431-.33-.1252-.4755l-3.7308-6.6014h3c.3509.0002.6955.091.9993.2633.3038.1722.556.4199.7315.718z" fill="url(#d)"/><path d="m18.8463 26.1312-2.9615.0264 3.5846-6.6353c.0801-.1475.122-.3122.122-.4793 0-.1672-.0419-.3319-.122-.4794l-3.5846-6.5636h.6769l3.7615 6.5334c.0892.1544.1357.3289.135.5063-.0006.1774-.0485.3516-.1388.5052-.8096 1.3808-1.6134 2.7647-2.4116 4.1518-.7307 1.2607-.4153 2.0722.9385 2.4345z" fill="url(#e)"/><path d="m12.9998 26.1538c-.3076 0-.6153-.0717-.8846-.2l3.7-6.5485c.1154-.2038.1154-.4529 0-.6567l-3.7-6.5448c.2751-.1336.5777-.2034.8846-.2038h3l3.7308 6.6014c.0822.1455.1253.3091.1253.4755s-.0431.3301-.1253.4756l-3.7308 6.6013z" fill="url(#f)"/><path d="m19.4697 18.7486-3.8154-6.7486h.3462l3.7307 6.6014c.0822.1455.1253.3091.1253.4755s-.0431.3301-.1253.4756l-3.7307 6.6013h-.3462l3.8154-6.7485c.1154-.2038.1154-.4529 0-.6567z" fill="url(#h)" opacity=".6"/><path d="m15.8152 18.7486-3.7-6.5448c.1154-.0604.2539-.1056.3846-.1434.8154 1.438 2.0193 3.6196 3.6154 6.541.0822.1455.1253.3092.1253.4755 0 .1664-.0431.3301-.1253.4756l-3.673 6.5259c-.1308-.0378-.2-.0642-.3231-.1208l3.6923-6.5485c.1154-.2038.1154-.4529 0-.6568z" fill="url(#i)" opacity=".6"/></g></svg>

<svg width="184" height="39" viewBox="0 0 184 39" fill="none" xmlns="http://www.w3.org/2000/svg">
<rect width="184" height="39" rx="5" fill="#404242"/>
<path d="M31.1562 25V13.625H34.5156C35.5208 13.625 36.4115 13.849 37.1875 14.2969C37.9688 14.7448 38.5729 15.3802 39 16.2031C39.4271 17.026 39.6406 17.9688 39.6406 19.0312V19.6016C39.6406 20.6797 39.4245 21.6276 38.9922 22.4453C38.5651 23.263 37.9531 23.8932 37.1562 24.3359C36.3646 24.7786 35.4557 25 34.4297 25H31.1562ZM33.1328 15.2188V23.4219H34.4219C35.4583 23.4219 36.2526 23.099 36.8047 22.4531C37.362 21.8021 37.6458 20.8698 37.6562 19.6562V19.0234C37.6562 17.7891 37.388 16.8464 36.8516 16.1953C36.3151 15.5443 35.5365 15.2188 34.5156 15.2188H33.1328ZM45.1484 25.1562C43.9453 25.1562 42.9688 24.7786 42.2188 24.0234C41.474 23.263 41.1016 22.2526 41.1016 20.9922V20.7578C41.1016 19.9141 41.263 19.1615 41.5859 18.5C41.9141 17.8333 42.3724 17.3151 42.9609 16.9453C43.5495 16.5755 44.2057 16.3906 44.9297 16.3906C46.0807 16.3906 46.9688 16.7578 47.5938 17.4922C48.224 18.2266 48.5391 19.2656 48.5391 20.6094V21.375H43.0156C43.0729 22.0729 43.3047 22.625 43.7109 23.0312C44.1224 23.4375 44.638 23.6406 45.2578 23.6406C46.1276 23.6406 46.8359 23.2891 47.3828 22.5859L48.4062 23.5625C48.0677 24.0677 47.6146 24.4609 47.0469 24.7422C46.4844 25.0182 45.8516 25.1562 45.1484 25.1562ZM44.9219 17.9141C44.401 17.9141 43.9792 18.0964 43.6562 18.4609C43.3385 18.8255 43.1354 19.3333 43.0469 19.9844H46.6641V19.8438C46.6224 19.2083 46.4531 18.7292 46.1562 18.4062C45.8594 18.0781 45.4479 17.9141 44.9219 17.9141ZM57.4219 20.8594C57.4219 22.1667 57.125 23.2109 56.5312 23.9922C55.9375 24.7682 55.1406 25.1562 54.1406 25.1562C53.2135 25.1562 52.4714 24.8516 51.9141 24.2422V28.25H50.0156V16.5469H51.7656L51.8438 17.4062C52.401 16.7292 53.1589 16.3906 54.1172 16.3906C55.1484 16.3906 55.9557 16.776 56.5391 17.5469C57.1276 18.3125 57.4219 19.3776 57.4219 20.7422V20.8594ZM55.5312 20.6953C55.5312 19.8516 55.362 19.1823 55.0234 18.6875C54.6901 18.1927 54.2109 17.9453 53.5859 17.9453C52.8099 17.9453 52.2526 18.2656 51.9141 18.9062V22.6562C52.2578 23.3125 52.8203 23.6406 53.6016 23.6406C54.2057 23.6406 54.6771 23.3984 55.0156 22.9141C55.3594 22.4245 55.5312 21.6849 55.5312 20.6953ZM61.0547 25H59.1562V13H61.0547V25ZM62.7734 20.6953C62.7734 19.8672 62.9375 19.1224 63.2656 18.4609C63.5938 17.7943 64.0547 17.2839 64.6484 16.9297C65.2422 16.5703 65.9245 16.3906 66.6953 16.3906C67.8359 16.3906 68.7604 16.7578 69.4688 17.4922C70.1823 18.2266 70.5677 19.2005 70.625 20.4141L70.6328 20.8594C70.6328 21.6927 70.4714 22.4375 70.1484 23.0938C69.8307 23.75 69.3724 24.2578 68.7734 24.6172C68.1797 24.9766 67.4922 25.1562 66.7109 25.1562C65.5182 25.1562 64.5625 24.7604 63.8438 23.9688C63.1302 23.1719 62.7734 22.112 62.7734 20.7891V20.6953ZM64.6719 20.8594C64.6719 21.7292 64.8516 22.4115 65.2109 22.9062C65.5703 23.3958 66.0703 23.6406 66.7109 23.6406C67.3516 23.6406 67.849 23.3906 68.2031 22.8906C68.5625 22.3906 68.7422 21.6589 68.7422 20.6953C68.7422 19.8411 68.5573 19.1641 68.1875 18.6641C67.8229 18.1641 67.3255 17.9141 66.6953 17.9141C66.0755 17.9141 65.5833 18.1615 65.2188 18.6562C64.8542 19.1458 64.6719 19.8802 64.6719 20.8594ZM75.0703 22.2812L76.7891 16.5469H78.8125L75.4531 26.2812C74.9375 27.7031 74.0625 28.4141 72.8281 28.4141C72.5521 28.4141 72.2474 28.3672 71.9141 28.2734V26.8047L72.2734 26.8281C72.7526 26.8281 73.112 26.7396 73.3516 26.5625C73.5964 26.3906 73.7891 26.099 73.9297 25.6875L74.2031 24.9609L71.2344 16.5469H73.2812L75.0703 22.2812ZM91.5 23.0078L93.125 16.5469H94.5703L92.1094 25H90.9375L88.8828 18.5938L86.8828 25H85.7109L83.2578 16.5469H84.6953L86.3594 22.875L88.3281 16.5469H89.4922L91.5 23.0078ZM97.6172 25H96.1719V16.5469H97.6172V25ZM96.0547 14.3047C96.0547 14.0703 96.125 13.8724 96.2656 13.7109C96.4115 13.5495 96.625 13.4688 96.9062 13.4688C97.1875 13.4688 97.401 13.5495 97.5469 13.7109C97.6927 13.8724 97.7656 14.0703 97.7656 14.3047C97.7656 14.5391 97.6927 14.7344 97.5469 14.8906C97.401 15.0469 97.1875 15.125 96.9062 15.125C96.625 15.125 96.4115 15.0469 96.2656 14.8906C96.125 14.7344 96.0547 14.5391 96.0547 14.3047ZM101.898 14.5V16.5469H103.477V17.6641H101.898V22.9062C101.898 23.2448 101.969 23.5 102.109 23.6719C102.25 23.8385 102.49 23.9219 102.828 23.9219C102.995 23.9219 103.224 23.8906 103.516 23.8281V25C103.135 25.1042 102.766 25.1562 102.406 25.1562C101.76 25.1562 101.273 24.9609 100.945 24.5703C100.617 24.1797 100.453 23.625 100.453 22.9062V17.6641H98.9141V16.5469H100.453V14.5H101.898ZM106.617 17.5703C107.258 16.7839 108.091 16.3906 109.117 16.3906C110.904 16.3906 111.805 17.3984 111.82 19.4141V25H110.375V19.4062C110.37 18.7969 110.229 18.3464 109.953 18.0547C109.682 17.763 109.258 17.6172 108.68 17.6172C108.211 17.6172 107.799 17.7422 107.445 17.9922C107.091 18.2422 106.815 18.5703 106.617 18.9766V25H105.172V13H106.617V17.5703ZM120.633 21.4141L120.852 22.9141L121.172 21.5625L123.422 13.625H124.688L126.883 21.5625L127.195 22.9375L127.438 21.4062L129.203 13.625H130.711L127.953 25H126.586L124.242 16.7109L124.062 15.8438L123.883 16.7109L121.453 25H120.086L117.336 13.625H118.836L120.633 21.4141ZM131.523 20.6953C131.523 19.8672 131.685 19.1224 132.008 18.4609C132.336 17.7995 132.789 17.2891 133.367 16.9297C133.951 16.5703 134.615 16.3906 135.359 16.3906C136.51 16.3906 137.44 16.7891 138.148 17.5859C138.862 18.3828 139.219 19.4427 139.219 20.7656V20.8672C139.219 21.6901 139.06 22.4297 138.742 23.0859C138.43 23.737 137.979 24.2448 137.391 24.6094C136.807 24.974 136.135 25.1562 135.375 25.1562C134.229 25.1562 133.299 24.7578 132.586 23.9609C131.878 23.1641 131.523 22.1094 131.523 20.7969V20.6953ZM132.977 20.8672C132.977 21.8047 133.193 22.5573 133.625 23.125C134.062 23.6927 134.646 23.9766 135.375 23.9766C136.109 23.9766 136.693 23.6901 137.125 23.1172C137.557 22.5391 137.773 21.7318 137.773 20.6953C137.773 19.7682 137.552 19.0182 137.109 18.4453C136.672 17.8672 136.089 17.5781 135.359 17.5781C134.646 17.5781 134.07 17.862 133.633 18.4297C133.195 18.9974 132.977 19.8099 132.977 20.8672ZM145.117 17.8438C144.898 17.8073 144.661 17.7891 144.406 17.7891C143.458 17.7891 142.815 18.1927 142.477 19V25H141.031V16.5469H142.438L142.461 17.5234C142.935 16.7682 143.607 16.3906 144.477 16.3906C144.758 16.3906 144.971 16.4271 145.117 16.5V17.8438ZM148.812 21.0859L147.906 22.0312V25H146.461V13H147.906V20.2578L148.68 19.3281L151.312 16.5469H153.07L149.781 20.0781L153.453 25H151.758L148.812 21.0859ZM157.914 25.1562C156.768 25.1562 155.836 24.7812 155.117 24.0312C154.398 23.276 154.039 22.2682 154.039 21.0078V20.7422C154.039 19.9036 154.198 19.1562 154.516 18.5C154.839 17.8385 155.286 17.3229 155.859 16.9531C156.438 16.5781 157.062 16.3906 157.734 16.3906C158.833 16.3906 159.688 16.7526 160.297 17.4766C160.906 18.2005 161.211 19.237 161.211 20.5859V21.1875H155.484C155.505 22.0208 155.747 22.6953 156.211 23.2109C156.68 23.7214 157.273 23.9766 157.992 23.9766C158.503 23.9766 158.935 23.8724 159.289 23.6641C159.643 23.4557 159.953 23.1797 160.219 22.8359L161.102 23.5234C160.393 24.612 159.331 25.1562 157.914 25.1562ZM157.734 17.5781C157.151 17.5781 156.661 17.7917 156.266 18.2188C155.87 18.6406 155.625 19.2344 155.531 20H159.766V19.8906C159.724 19.1562 159.526 18.5885 159.172 18.1875C158.818 17.7812 158.339 17.5781 157.734 17.5781ZM166.977 17.8438C166.758 17.8073 166.521 17.7891 166.266 17.7891C165.318 17.7891 164.674 18.1927 164.336 19V25H162.891V16.5469H164.297L164.32 17.5234C164.794 16.7682 165.466 16.3906 166.336 16.3906C166.617 16.3906 166.831 16.4271 166.977 16.5V17.8438ZM173.234 22.7578C173.234 22.3672 173.086 22.0651 172.789 21.8516C172.497 21.6328 171.984 21.4453 171.25 21.2891C170.521 21.1328 169.94 20.9453 169.508 20.7266C169.081 20.5078 168.763 20.2474 168.555 19.9453C168.352 19.6432 168.25 19.2839 168.25 18.8672C168.25 18.1745 168.542 17.5885 169.125 17.1094C169.714 16.6302 170.464 16.3906 171.375 16.3906C172.333 16.3906 173.109 16.638 173.703 17.1328C174.302 17.6276 174.602 18.2604 174.602 19.0312H173.148C173.148 18.6354 172.979 18.2943 172.641 18.0078C172.307 17.7214 171.885 17.5781 171.375 17.5781C170.849 17.5781 170.438 17.6927 170.141 17.9219C169.844 18.151 169.695 18.4505 169.695 18.8203C169.695 19.1693 169.833 19.4323 170.109 19.6094C170.385 19.7865 170.883 19.9557 171.602 20.1172C172.326 20.2786 172.911 20.4714 173.359 20.6953C173.807 20.9193 174.138 21.1901 174.352 21.5078C174.57 21.8203 174.68 22.2031 174.68 22.6562C174.68 23.4115 174.378 24.0182 173.773 24.4766C173.169 24.9297 172.385 25.1562 171.422 25.1562C170.745 25.1562 170.146 25.0365 169.625 24.7969C169.104 24.5573 168.695 24.224 168.398 23.7969C168.107 23.3646 167.961 22.8984 167.961 22.3984H169.406C169.432 22.8828 169.625 23.2682 169.984 23.5547C170.349 23.8359 170.828 23.9766 171.422 23.9766C171.969 23.9766 172.406 23.8672 172.734 23.6484C173.068 23.4245 173.234 23.1276 173.234 22.7578Z" fill="white"/>
<g clip-path="url(#clip0)">
<path d="M12.1149 12.2039L13.9995 15.5404L12.2687 18.5976C12.1859 18.7436 12.1424 18.908 12.1424 19.0751C12.1424 19.2422 12.1859 19.4065 12.2687 19.5525L13.9995 22.6173L12.1149 25.9538C11.7603 25.7813 11.4658 25.5094 11.2687 25.1726L8.26872 20.0583C8.09393 19.7597 8.00195 19.4213 8.00195 19.077C8.00195 18.7326 8.09393 18.3942 8.26872 18.0956L11.2687 12.9814C11.4664 12.6459 11.7608 12.3754 12.1149 12.2039Z" fill="url(#paint0_linear)"/>
<path opacity="0.7" d="M12.2693 18.6013C12.1871 18.7469 12.144 18.9105 12.144 19.0769C12.144 19.2433 12.1871 19.4069 12.2693 19.5525L14.0001 22.6172L12.1155 25.9538C11.7608 25.7812 11.4664 25.5093 11.2693 25.1725L8.2693 20.0582C8.03084 19.6544 9.36545 19.1712 12.2693 18.6051V18.6013Z" fill="url(#paint1_linear)"/>
<path opacity="0.5" d="M12.3077 12.5398L14 15.5404L13.7193 16.0197L12.227 13.54C11.7962 12.8493 11.1385 13.2078 10.3154 14.6044L10.4385 14.3968L11.2693 12.9814C11.4649 12.647 11.7565 12.3766 12.1077 12.2039L12.3039 12.5398H12.3077Z" fill="url(#paint2_linear)"/>
<path d="M20.7308 12.9813L23.7308 18.0956C24.0885 18.6995 24.0885 19.4544 23.7308 20.0583L20.7308 25.1725C20.5553 25.4707 20.3031 25.7183 19.9993 25.8906C19.6955 26.0628 19.3509 26.1536 19 26.1538H16L19.7308 19.5525C19.8129 19.407 19.856 19.2433 19.856 19.0769C19.856 18.9105 19.8129 18.7469 19.7308 18.6014L16 12H19C19.3509 12.0002 19.6955 12.091 19.9993 12.2633C20.3031 12.4355 20.5553 12.6832 20.7308 12.9813Z" fill="url(#paint3_linear)"/>
<path d="M18.8463 26.1312L15.8848 26.1576L19.4694 19.5223C19.5495 19.3748 19.5914 19.2101 19.5914 19.043C19.5914 18.8758 19.5495 18.7111 19.4694 18.5636L15.8848 12H16.5617L20.3232 18.5334C20.4124 18.6878 20.4589 18.8623 20.4582 19.0397C20.4576 19.2171 20.4097 19.3913 20.3194 19.5449C19.5098 20.9257 18.706 22.3096 17.9078 23.6967C17.1771 24.9574 17.4925 25.7689 18.8463 26.1312Z" fill="url(#paint4_linear)"/>
<path d="M12.9998 26.1538C12.6922 26.1538 12.3845 26.0821 12.1152 25.9538L15.8152 19.4053C15.9306 19.2015 15.9306 18.9524 15.8152 18.7486L12.1152 12.2038C12.3903 12.0702 12.6929 12.0004 12.9998 12H15.9998L19.7306 18.6014C19.8128 18.7469 19.8559 18.9105 19.8559 19.0769C19.8559 19.2433 19.8128 19.407 19.7306 19.5525L15.9998 26.1538H12.9998Z" fill="url(#paint5_linear)"/>
<path opacity="0.6" d="M19.4697 18.7486L15.6543 12H16.0005L19.7312 18.6014C19.8134 18.7469 19.8565 18.9105 19.8565 19.0769C19.8565 19.2433 19.8134 19.407 19.7312 19.5525L16.0005 26.1538H15.6543L19.4697 19.4053C19.5851 19.2015 19.5851 18.9524 19.4697 18.7486Z" fill="url(#paint6_linear)"/>
<path opacity="0.6" d="M15.8152 18.7485L12.1152 12.2037C12.2306 12.1433 12.3691 12.098 12.4998 12.0603C13.3152 13.4983 14.5191 15.6799 16.1152 18.6013C16.1974 18.7468 16.2405 18.9105 16.2405 19.0768C16.2405 19.2432 16.1974 19.4069 16.1152 19.5524L12.4422 26.0783C12.3114 26.0405 12.2422 26.0141 12.1191 25.9575L15.8114 19.409C15.9268 19.2052 15.9268 18.9561 15.8114 18.7522L15.8152 18.7485Z" fill="url(#paint7_linear)"/>
</g>
<defs>
<linearGradient id="paint0_linear" x1="11.0007" y1="25.9538" x2="5.02344" y2="16.1581" gradientUnits="userSpaceOnUse">
<stop stop-color="#EB6F07"/>
<stop offset="1" stop-color="#FAB743"/>
</linearGradient>
<linearGradient id="paint1_linear" x1="12.9061" y1="24.7553" x2="9.80444" y2="21.5047" gradientUnits="userSpaceOnUse">
<stop stop-color="#D96504"/>
<stop offset="1" stop-color="#D96504" stop-opacity="0"/>
</linearGradient>
<linearGradient id="paint2_linear" x1="11.863" y1="12.5358" x2="13.4922" y2="15.2028" gradientUnits="userSpaceOnUse">
<stop stop-color="#EB6F07"/>
<stop offset="1" stop-color="#EB720A" stop-opacity="0"/>
</linearGradient>
<linearGradient id="paint3_linear" x1="19.9995" y1="26.1538" x2="14.6656" y2="14.828" gradientUnits="userSpaceOnUse">
<stop stop-color="#EE6F05"/>
<stop offset="1" stop-color="#FAB743"/>
</linearGradient>
<linearGradient id="paint4_linear" x1="14.3664" y1="26.1576" x2="23.1526" y2="23.8852" gradientUnits="userSpaceOnUse">
<stop stop-color="#D96504" stop-opacity="0.8"/>
<stop offset="0.498" stop-color="#D96504" stop-opacity="0.2"/>
<stop offset="1" stop-color="#D96504" stop-opacity="0"/>
</linearGradient>
<linearGradient id="paint5_linear" x1="15.9856" y1="26.1538" x2="10.5407" y2="14.9658" gradientUnits="userSpaceOnUse">
<stop stop-color="#FFA95F"/>
<stop offset="1" stop-color="#FFEBC8"/>
</linearGradient>
<linearGradient id="paint6_linear" x1="15.9947" y1="12.1557" x2="20.671" y2="12.9048" gradientUnits="userSpaceOnUse">
<stop stop-color="white" stop-opacity="0.5"/>
<stop offset="1" stop-color="white" stop-opacity="0.1"/>
</linearGradient>
<linearGradient id="paint7_linear" x1="11.5501" y1="26.667" x2="17.3308" y2="25.7992" gradientUnits="userSpaceOnUse">
<stop stop-color="white" stop-opacity="0.5"/>
<stop offset="1" stop-color="white" stop-opacity="0.1"/>
</linearGradient>
<clipPath id="clip0">
<rect width="16" height="14.1538" fill="white" transform="translate(8 12)"/>
</clipPath>
</defs>
</svg>
